X:57
T:Martinis Minuet
O:No 57 Pages 24-25 Wm Clarke of Feltwell  MS 1858
N:Bar 13: qvrs in MS.  Changed to match bar 14.
I:abc2nwc
M:3/4
L:1/8
K:D
d3f e2|e3g f2|.d2.e2.f2|.g2.e2z2|.g.f .e.d .c.B|A4Bc|dg f2"^tr"e2|d6:|
|:a2ab ag|f2fe fa|g2"^tr"g3f|fe dc BA|d2"^*"(d/2c/2d/2e/2) f2|
B2B/2A/2B/2c/2 d2|ef ge fd|cd ec BA|d3f e2|e3g f2|.d2.e2.f2|
.g2.e2z2|.g.f .e.d .c.B|A4Bc|dg f2"^tr"e2|d6:|
|:(FA) .d.d .d.d|(GB) .e.e .e.e|(FA) d3f|{f}e2dc BA|
(FA) .d.d .d.d|(GB) .e.e .e.e|(FA) d2"^tr"e2|d6:|
|:A4Bc|d4fd|A4GF|FE E4|A4Bc|d4fd|Aa ag gf|
"^tr"f2e2z2|(FA) .d.d .d.d|(GB) .e.e .e.e (FA) d3f|
{f}e2dc BA|(FA) .d.d .d.d|(GB) .e.e .e.e|(FA) d2"^tr"e2|d6:|

